X: 1
T: B\aatsman D\"ack
O: efter Ceylon Wallin
R: hambo-polska
M: 3/4
L: 1/8
O: efter Ceylon Wallin
Z: 1999 John Chambers <jc@trillian.mit.edu>
K: G
|: "G"D>G B>G D>G | .B2 B4 | c>B A>G F>G | "D7".A2 A4 \
|| D>F A>D F>A |  .c2 c4 | d>c B>A G>A | "G".B2 B4 :|
|: "C"e2 e>d c>e | "G"d>d- d>c B>d | "D7"c>B A>G F>A | "G"G2 (3BGB d2 \
|| "C"e2 e>d c>e | "G"d>d- d>c B>d | "D7"c>B A>G F>A | "G".G2 G4 :|
